public/assets/anhanguera_logo.svg

<svg xmlns="http://www.w3.org/2000/svg" fill="none" viewBox="0 0 287 258">
    <defs/>
    <path fill="#F16522" d="M112.856 78.679c-5.833 2.1065-11.5 4.645-16.9548 7.5941-1.484.8688-2.7277 2.094-3.6183 3.5645l-8.6842 16.2214c-.672 1.292 0 2.015 1.2923 1.55l6.9783-2.17c8.3737-2.531 23.8817-6.1475 23.8817-6.1475 1.603-.5138 2.976-1.5743 3.877-2.9963l12.199-22.3174c.723-1.2915 0-1.9631-1.241-1.4981 0 0-8.684 2.7897-17.523 6.1993h-.207zm78.881 9.6088c.208.014.417-.014.613-.0824.197-.0684.378-.1757.533-.3155.154-.1398.279-.3093.366-.4984.087-.189.136-.3937.142-.6018.044-.3645-.048-.7321-.258-1.0332L181.45 64.3173c-.41-.6534-.996-1.1788-1.691-1.5166-.694-.3378-1.469-.4746-2.237-.3948l-23.313 3.9779c-.25.0311-.492.1129-.71.2403-.218.1274-.407.2978-.557.5007-.15.203-.257.4343-.315.6799-.057.2456-.064.5004-.02.7488-.072.2357-.072.4875 0 .7232l10.338 19.2694c.41.6679.989 1.2156 1.679 1.5876.69.372 1.466.555 2.25.5305l24.863-2.3764z"/>
    <path fill="#F37920" d="M175.868 54.0887l-2.171-3.8746-3.981-7.5424-5.479-10.0738c-.344-.6767-.918-1.2092-1.618-1.5025-.701-.2933-1.483-.3284-2.207-.099-13.784 3.874-26.993 9.5544-39.285 16.893-4.187 2.7897-7.806 5.786-7.806 5.786-1.338 1.1512-2.459 2.5336-3.308 4.0811l-9.976 18.2362c-.7242 1.2915 0 1.8081 1.137 1.1882l5.169-2.3764c10.299-4.3146 20.887-7.9052 31.687-10.7454h.62c12.406-3.2546 35.564-7.2324 35.564-7.2324.308-.0349.602-.1461.856-.3235.255-.1775.46-.4157.599-.6928.139-.2772.206-.5846.195-.8943-.01-.3097-.098-.6119-.255-.8791"/>
    <path fill="#F6921E" d="M120.351 41.6384c6.027-3.5803 12.238-6.8395 18.609-9.7638 6.617-2.738 18.402-6.0443 18.402-6.0443.265-.0609.515-.1734.737-.331.221-.1576.409-.3573.553-.5876.144-.2303.241-.4867.286-.7546.045-.2679.036-.5419-.025-.8065.02-.2061.02-.4138 0-.6199L147.748 2.63472c-2.275-3.66789-5.738-3.512912-7.909.41329L119.162 40.9152c-.672 1.2915-.258 1.7048 1.034.9815"/>
    <path fill="#EF4E23" d="M211.38 119.181l-12.613-23.0407c-.294-.6016-.73-1.1229-1.27-1.5188-.54-.396-1.169-.6548-1.831-.7543h-.776c-34.165 2.0485-68.011 7.7638-100.953 17.0478-5.9962 1.757-13.1297 4.236-13.1297 4.236-.8809.172-1.7056.559-2.4003 1.127-.6946.568-1.2374 1.299-1.5799 2.128v.723c-1.8092 3.823 0 6.871 4.7039 6.871h125.145c4.445 0 6.461-3.048 4.704-6.871"/>
    <g fill="#333">
        <path d="M11.6655 174.448h11.1304l-2.7826-9.831c-1.2429-4.36-2.1846-8.799-2.8183-13.287-.7412 4.477-1.7177 8.912-2.9253 13.287l-2.6042 9.831zm12.486 5.129H10.3099l-3.17503 11.292c-.24972.784-.49944 1.104-3.068 1.104-1.35728.042-2.71588-.005-4.06687-.142l14.2697-47.625c0-.713 1.0346-.998 2.4972-.998 1.0265 0 2.0517.071 3.068.214l14.2698 47.447c0 .784-.2498 1.176-2.8183 1.176h-3.8885l-3.2464-12.468zm13.4492-20.767c4.0929-1.455 8.3923-2.249 12.7358-2.351 8.4548 0 11.3444 2.565 11.3444 9.262v24.934c0 1.105 0 1.105-6.7424 1.105v-24.223c0-4.381-.8205-6.019-4.8517-6.019-2.0504.004-4.0781.428-5.9576 1.246v28.105c0 1.104 0 1.104-6.5285 1.104V158.81zm29.9665-15.245c0-2.565 1.1416-2.565 6.5284-2.565v18.273c2.6629-1.793 5.8139-2.726 9.0256-2.671 6.9208 0 8.3478 3.313 8.3478 9.119v24.934c0 1.105-.3211 1.105-6.7425 1.105v-24.436c0-3.064-.6421-5.521-4.602-5.521-2.1638-.019-4.2765.655-6.0289 1.923v27.143c0 1.104 0 1.104-6.5284 1.104v-48.408zm41.3108 31.382c-3.211 0-5.958.961-5.958 7.124 0 5.058 2.105 5.984 5.245 5.984 1.507.055 2.994-.369 4.245-1.211.319-3.755.438-7.524.357-11.292-1.222-.397-2.498-.601-3.782-.605h-.107zm-11.7368-16.493c3.8688-1.361 7.9578-1.989 12.0578-1.852 6.921 0 9.989 2.208 9.989 8.442v3.562c0 7.979 0 16.279-.464 21.551-3.501 1.639-7.336 2.444-11.202 2.351-5.886 0-11.5224-1.033-11.5224-10.687 0-9.653 5.3154-11.363 10.7024-11.363 2.003-.067 4.001.247 5.886.926v-5.236c0-3.241-1.784-4.096-4.994-4.096-3.624-.028-7.232.488-10.7025 1.532-.5749-.959-.8828-2.053-.8919-3.171-.0276-.375.0396-.751.1954-1.093.1559-.342.3953-.64.6965-.866h.2497zm27.9328.499c4.069-1.455 8.344-2.249 12.665-2.351 8.526 0 11.38 2.565 11.38 9.333v24.934c0 1.104 0 1.104-6.778 1.104v-24.436c0-4.381-.785-6.019-4.816-6.019-2.051.004-4.079.428-5.958 1.246v28.105c0 1.104 0 1.104-6.528 1.104l.035-33.02zm84.798 31.168c-3.794 1.643-7.886 2.492-12.022 2.493-9.561 0-12.058-3.74-12.058-11.505v-22.655c0-1.175 0-1.175 6.742-1.175v24.329c0 4.488 1.071 6.091 5.423 6.091 1.871.033 3.721-.395 5.387-1.247v-27.998c0-1.175 0-1.175 6.528-1.175v32.842zm12.308-16.849c3.583.107 7.168-.143 10.702-.748.291-1.369.423-2.768.392-4.167 0-4.987-1.105-6.839-4.602-6.839-3.496 0-6.171 2.422-6.671 11.754h.179zm17.659-5.521c.055 2.978-.22 5.953-.821 8.87-5.58.76-11.207 1.129-16.838 1.104.321 7.338 2.568 9.261 7.491 9.261 3.177-.024 6.309-.754 9.169-2.137.383 1.234.576 2.519.57 3.812 0 2.137-5.065 3.811-11.13 3.811-7.456 0-12.878-2.707-12.878-16.207 0-17.312 7.134-19.806 14.269-19.806s10.239 3.562 10.239 11.15l-.071.142zm4.994-8.193c3.321-1.96 7.094-3.028 10.952-3.099 4.103 0 5.637 1.033 5.637 2.886-.007 1.153-.25 2.292-.714 3.348-1.464-.672-3.076-.956-4.682-.825-1.606.131-3.151.673-4.486 1.573v27.428c0 1.104 0 1.104-6.6 1.104l-.107-32.415zm31.857 15.246c-3.211 0-5.957.962-5.957 7.124 0 5.058 2.104 5.985 5.244 5.985 1.507.054 2.994-.37 4.245-1.212.25-2.279.25-7.409.25-11.149-1.222-.397-2.498-.601-3.782-.605v-.143zm-11.915-16.207c3.922-1.396 8.076-2.025 12.236-1.853 6.957 0 9.989 2.209 9.989 8.442v3.563c0 7.979 0 16.278-.464 21.55-3.501 1.639-7.336 2.444-11.201 2.351-5.887 0-11.523-1.033-11.523-10.686s5.315-11.363 10.702-11.363c2.003-.068 4.001.247 5.886.926v-5.379c0-3.241-1.748-4.096-4.994-4.096-3.624-.028-7.232.488-10.702 1.532-.53-.97-.777-2.068-.714-3.171-.035-.372.025-.747.175-1.09.15-.342.384-.641.681-.869l-.071.143zm-97.106 28.283c-.497.071-1.001.071-1.498 0-3.211-.713-5.066-3.848-5.529-9.369v-4.844c-.002-2.689.739-5.327 2.14-7.623.77-.946 1.763-1.685 2.89-2.151 1.127-.467 2.353-.646 3.567-.521 1.47-.005 2.938.114 4.388.357v22.654l-.571.428c-1.551.954-3.352 1.426-5.173 1.353l-.214-.284zm-7.134 16.955c-1.081.071-2.166.071-3.247 0-.321 1.069-.321 2.208 0 3.277.105.38.299.73.565 1.022.267.291.599.514.969.652.511.144 1.039.215 1.57.214 5.112.187 10.102-1.585 13.948-4.951 1.181-1.042 2.213-2.241 3.068-3.562 1.864-2.95 2.819-6.381 2.747-9.867v-32.059h-.428c-3.493-.912-7.091-1.367-10.702-1.354-2.124-.161-4.258.142-6.254.886-1.996.744-3.806 1.913-5.304 3.425-2.636 3.681-3.898 8.167-3.568 12.681v.605c.006 2.033.209 4.061.607 6.056.27 1.902.949 3.724 1.99 5.341 1.04 1.617 2.418 2.99 4.039 4.027 2.272 1.274 4.851 1.902 7.455 1.817 1.915-.032 3.81-.393 5.601-1.069v.214c.054 1.572-.216 3.139-.793 4.603-.576 1.465-1.448 2.795-2.56 3.91l-.535.534c-1.915 1.896-4.446 3.045-7.135 3.242-.753.029-1.503.101-2.248.214M86.0963 220.546v35.911c0 .982 0 .982-4.7797.982v-36.893H73v-3.46c0-.701.2868-1.029 1.0037-1.029h20.5526v3.554c0 .701-.2868.935-1.0038.935h-7.4562zm5.6399 8.323c2.8999-1.191 6.0352-1.734 9.1768-1.59 5.162 0 7.456 1.918 7.456 7.201v3.133c0 6.827 0 14.028-.334 18.376-2.567 1.403-5.474 2.097-8.4123 2.011-4.3973 0-8.6512-.888-8.6512-8.978 0-8.089 4.0149-9.679 8.0298-9.679 1.5167-.033 3.0267.221 4.4447.748v-4.675c0-2.806-1.338-3.507-3.7755-3.507-2.7023-.017-5.387.426-7.9343 1.309-.4652-.83-.6961-1.766-.6691-2.712-.0265-.305.0202-.612.1363-.896.1162-.284.2987-.538.5328-.741zm8.8428 14.028c-2.3902 0-4.4455.842-4.4455 5.985 0 4.302 1.5773 5.05 3.9195 5.05 1.149.027 2.275-.318 3.202-.982v-9.352c-.849-.36-1.754-.581-2.676-.654v-.047zm30.733 13.186c-2.788 1.374-5.864 2.094-8.986 2.104-7.217 0-9.081-3.18-9.081-9.819v-19.499c0-.841 0-.841 5.066-.841v20.573c0 3.881.813 5.237 4.063 5.237 1.427-.003 2.828-.374 4.063-1.075v-23.894c0-.982 0-.982 4.779-.982l.096 28.196zm5.64-39.839c0-2.244.86-2.244 4.78-2.244v15.337c1.837-1.405 4.121-2.133 6.452-2.058 4.78 0 7.361 3.04 7.361 11.643 0 17.067-6.644 19.078-11.663 19.078-2.459.096-4.886-.576-6.93-1.917v-39.839zm4.78 36.753c.866.584 1.916.85 2.963.748 2.103 0 5.497-1.777 5.497-13.747 0-6.313-1.339-8.37-4.111-8.37-1.567-.015-3.078.573-4.206 1.637l-.143 19.732zm17.971-24.128c2.919-1.183 6.068-1.726 9.225-1.59 5.162 0 7.456 1.918 7.456 7.201v3.133c0 6.827 0 14.028-.334 18.376-2.57 1.396-5.475 2.09-8.413 2.011-4.397 0-8.651-.888-8.651-8.978 0-8.089 4.015-9.679 8.03-9.679 1.517-.033 3.027.221 4.445.748v-4.675c0-2.806-1.338-3.507-3.776-3.507-2.717-.011-5.417.432-7.982 1.309-.44-.823-.669-1.737-.669-2.665-.023-.312.025-.625.14-.916.116-.291.297-.553.529-.768zm8.89 14.028c-2.39 0-4.445.842-4.445 5.985 0 4.302 1.577 5.05 3.919 5.05 1.149.027 2.275-.318 3.203-.982v-9.352c-.85-.36-1.754-.581-2.677-.654v-.047zm14.339-10.895h-4.11c0-3.647 0-4.115 1.099-4.115h3.011v-8.977c0-1.684.908-1.684 4.78-1.684v10.802h6.118c0 3.74 0 4.114-.956 4.114h-5.162v17.067c0 2.525 0 4.676 2.151 4.676 1.22-.006 2.42-.312 3.489-.888.243.757.372 1.544.382 2.338 0 2.197-2.868 2.665-5.21 2.665-5.066 0-5.592-3.46-5.592-8.791v-17.207zM214 236.818c.033 2.572-.191 5.14-.669 7.669-4.174.639-8.394.952-12.618.935.238 6.266 1.911 7.902 5.592 7.902 2.423-.06 4.791-.719 6.882-1.917.311 1.064.456 2.167.431 3.273 0 1.824-3.776 3.226-8.317 3.226-5.64 0-9.559-2.291-9.559-13.793 0-14.776 5.353-16.927 10.658-16.927 5.306 0 7.6 3.226 7.6 9.632zm-13.24 4.676c2.742.115 5.488-.104 8.174-.654.209-1.142.305-2.301.286-3.461 0-4.255-.86-5.844-3.441-5.844s-4.636 2.01-5.019 10.006v-.047zm2.199-20.433c2.355-2.699 5.072-5.074 8.078-7.061 1.147 0 2.055 2.198 2.246 3.6-2.614 2.329-5.447 4.411-8.46 6.219-1.099 0-1.864-2.712-1.864-2.712v-.046z"/>
    </g>
</svg>

<svg width="287" height="258" viewBox="0 0 287 258" fill="none" xmlns="http://www.w3.org/2000/svg">
<g clip-path="url(#clip0)">
<path d="M112.856 78.679C107.023 80.7855 101.356 83.324 95.9012 86.2731C94.4172 87.1419 93.1735 88.3671 92.2829 89.8376L83.5987 106.059C82.9267 107.351 83.5987 108.074 84.891 107.609L91.8693 105.439C100.243 102.908 115.751 99.2915 115.751 99.2915C117.354 98.7777 118.727 97.7172 119.628 96.2952L131.827 73.9778C132.55 72.6863 131.827 72.0147 130.586 72.4797C130.586 72.4797 121.902 75.2694 113.063 78.679H112.856ZM191.737 88.2878C191.945 88.3018 192.154 88.2738 192.35 88.2054C192.547 88.137 192.728 88.0297 192.883 87.8899C193.037 87.7501 193.162 87.5806 193.249 87.3915C193.336 87.2025 193.385 86.9978 193.391 86.7897C193.435 86.4252 193.343 86.0576 193.133 85.7565L181.45 64.3173C181.04 63.6639 180.454 63.1385 179.759 62.8007C179.065 62.4629 178.29 62.3261 177.522 62.4059L154.209 66.3838C153.959 66.4149 153.717 66.4967 153.499 66.6241C153.281 66.7515 153.092 66.9219 152.942 67.1248C152.792 67.3278 152.685 67.5591 152.627 67.8047C152.57 68.0503 152.563 68.3051 152.607 68.5535C152.535 68.7892 152.535 69.041 152.607 69.2767L162.945 88.5461C163.355 89.214 163.934 89.7617 164.624 90.1337C165.314 90.5057 166.09 90.6887 166.874 90.6642L191.737 88.2878Z" fill="#F16522"/>
<path d="M175.868 54.0887L173.697 50.2141L169.716 42.6717L164.237 32.5979C163.893 31.9212 163.319 31.3887 162.619 31.0954C161.918 30.8021 161.136 30.767 160.412 30.9964C146.628 34.8704 133.419 40.5508 121.127 47.8894C116.94 50.6791 113.321 53.6754 113.321 53.6754C111.983 54.8266 110.862 56.209 110.013 57.7565L100.037 75.9927C99.3128 77.2842 100.037 77.8008 101.174 77.1809L106.343 74.8045C116.642 70.4899 127.23 66.8993 138.03 64.0591H138.65C151.056 60.8045 174.214 56.8267 174.214 56.8267C174.522 56.7918 174.816 56.6806 175.07 56.5032C175.325 56.3257 175.53 56.0875 175.669 55.8104C175.808 55.5332 175.875 55.2258 175.864 54.9161C175.854 54.6064 175.766 54.3042 175.609 54.037" fill="#F37920"/>
<path d="M120.351 41.6384C126.378 38.0581 132.589 34.7989 138.96 31.8746C145.577 29.1366 157.362 25.8303 157.362 25.8303C157.627 25.7694 157.877 25.6569 158.099 25.4993C158.32 25.3417 158.508 25.142 158.652 24.9117C158.796 24.6814 158.893 24.425 158.938 24.1571C158.983 23.8892 158.974 23.6152 158.913 23.3506C158.933 23.1445 158.933 22.9368 158.913 22.7307L147.748 2.63472C145.473 -1.03317 142.01 -0.878192 139.839 3.04801L119.162 40.9152C118.49 42.2067 118.904 42.62 120.196 41.8967" fill="#F6921E"/>
<path d="M211.38 119.181L198.767 96.1403C198.473 95.5387 198.037 95.0174 197.497 94.6215C196.957 94.2255 196.328 93.9667 195.666 93.8672H194.89C160.725 95.9157 126.879 101.631 93.937 110.915C87.9408 112.672 80.8073 115.151 80.8073 115.151C79.9264 115.323 79.1017 115.71 78.407 116.278C77.7124 116.846 77.1696 117.577 76.8271 118.406V119.129C75.0179 122.952 76.8271 126 81.531 126H206.676C211.121 126 213.137 122.952 211.38 119.129" fill="#EF4E23"/>
</g>
<g clip-path="url(#clip1)">
<path d="M11.6655 174.448H22.7959L20.0133 164.617C18.7704 160.257 17.8287 155.818 17.195 151.33C16.4538 155.807 15.4773 160.242 14.2697 164.617L11.6655 174.448ZM24.1515 179.577H10.3099L7.13487 190.869C6.88515 191.653 6.63543 191.973 4.06687 191.973C2.70959 192.015 1.35099 191.968 0 191.831L14.2697 144.206C14.2697 143.493 15.3043 143.208 16.7669 143.208C17.7934 143.208 18.8186 143.279 19.8349 143.422L34.1047 190.869C34.1047 191.653 33.8549 192.045 31.2864 192.045H27.3979L24.1515 179.577ZM37.6007 158.81C41.6936 157.355 45.993 156.561 50.3365 156.459C58.7913 156.459 61.6809 159.024 61.6809 165.721V190.655C61.6809 191.76 61.6809 191.76 54.9385 191.76V167.537C54.9385 163.156 54.118 161.518 50.0868 161.518C48.0364 161.522 46.0087 161.946 44.1292 162.764V190.869C44.1292 191.973 44.1292 191.973 37.6007 191.973V158.81ZM67.5672 143.565C67.5672 141 68.7088 141 74.0956 141V159.273C76.7585 157.48 79.9095 156.547 83.1212 156.602C90.042 156.602 91.469 159.915 91.469 165.721V190.655C91.469 191.76 91.1479 191.76 84.7265 191.76V167.324C84.7265 164.26 84.0844 161.803 80.1245 161.803C77.9607 161.784 75.848 162.458 74.0956 163.726V190.869C74.0956 191.973 74.0956 191.973 67.5672 191.973V143.565ZM108.878 174.947C105.667 174.947 102.92 175.908 102.92 182.071C102.92 187.129 105.025 188.055 108.165 188.055C109.672 188.11 111.159 187.686 112.41 186.844C112.729 183.089 112.848 179.32 112.767 175.552C111.545 175.155 110.269 174.951 108.985 174.947H108.878ZM97.1412 158.454C101.01 157.093 105.099 156.465 109.199 156.602C116.12 156.602 119.188 158.81 119.188 165.044V168.606C119.188 176.585 119.188 184.885 118.724 190.157C115.223 191.796 111.388 192.601 107.522 192.508C101.636 192.508 95.9996 191.475 95.9996 181.821C95.9996 172.168 101.315 170.458 106.702 170.458C108.705 170.391 110.703 170.705 112.588 171.384V166.148C112.588 162.907 110.804 162.052 107.594 162.052C103.97 162.024 100.362 162.54 96.8915 163.584C96.3166 162.625 96.0087 161.531 95.9996 160.413C95.972 160.038 96.0392 159.662 96.195 159.32C96.3509 158.978 96.5903 158.68 96.8915 158.454H97.1412ZM125.074 158.953C129.143 157.498 133.418 156.704 137.739 156.602C146.265 156.602 149.119 159.167 149.119 165.935V190.869C149.119 191.973 149.119 191.973 142.341 191.973V167.537C142.341 163.156 141.556 161.518 137.525 161.518C135.474 161.522 133.446 161.946 131.567 162.764V190.869C131.567 191.973 131.567 191.973 125.039 191.973L125.074 158.953ZM209.872 190.121C206.078 191.764 201.986 192.613 197.85 192.614C188.289 192.614 185.792 188.874 185.792 181.109V158.454C185.792 157.279 185.792 157.279 192.534 157.279V181.608C192.534 186.096 193.605 187.699 197.957 187.699C199.828 187.732 201.678 187.304 203.344 186.452V158.454C203.344 157.279 203.344 157.279 209.872 157.279V190.121ZM222.18 173.272C225.763 173.379 229.348 173.129 232.882 172.524C233.173 171.155 233.305 169.756 233.274 168.357C233.274 163.37 232.169 161.518 228.672 161.518C225.176 161.518 222.501 163.94 222.001 173.272H222.18ZM239.839 167.751C239.894 170.729 239.619 173.704 239.018 176.621C233.438 177.381 227.811 177.75 222.18 177.725C222.501 185.063 224.748 186.986 229.671 186.986C232.848 186.962 235.98 186.232 238.84 184.849C239.223 186.083 239.416 187.368 239.41 188.661C239.41 190.798 234.345 192.472 228.28 192.472C220.824 192.472 215.402 189.765 215.402 176.265C215.402 158.953 222.536 156.459 229.671 156.459C236.806 156.459 239.91 160.021 239.91 167.609L239.839 167.751ZM244.833 159.558C248.154 157.598 251.927 156.53 255.785 156.459C259.888 156.459 261.422 157.492 261.422 159.345C261.415 160.498 261.172 161.637 260.708 162.693C259.244 162.021 257.632 161.737 256.026 161.868C254.42 161.999 252.875 162.541 251.54 163.441V190.869C251.54 191.973 251.54 191.973 244.94 191.973L244.833 159.558ZM276.69 174.804C273.479 174.804 270.733 175.766 270.733 181.928C270.733 186.986 272.837 187.913 275.977 187.913C277.484 187.967 278.971 187.543 280.222 186.701C280.472 184.422 280.472 179.292 280.472 175.552C279.25 175.155 277.974 174.951 276.69 174.947V174.804ZM264.775 158.597C268.697 157.201 272.851 156.572 277.011 156.744C283.968 156.744 287 158.953 287 165.186V168.749C287 176.728 287 185.027 286.536 190.299C283.035 191.938 279.2 192.743 275.335 192.65C269.448 192.65 263.812 191.617 263.812 181.964C263.812 172.311 269.127 170.601 274.514 170.601C276.517 170.533 278.515 170.848 280.4 171.527V166.148C280.4 162.907 278.652 162.052 275.406 162.052C271.782 162.024 268.174 162.54 264.704 163.584C264.174 162.614 263.927 161.516 263.99 160.413C263.955 160.041 264.015 159.666 264.165 159.323C264.315 158.981 264.549 158.682 264.846 158.454L264.775 158.597ZM167.669 186.88C167.172 186.951 166.668 186.951 166.171 186.88C162.96 186.167 161.105 183.032 160.642 177.511V172.667C160.64 169.978 161.381 167.34 162.782 165.044C163.552 164.098 164.545 163.359 165.672 162.893C166.799 162.426 168.025 162.247 169.239 162.372C170.709 162.367 172.177 162.486 173.627 162.729V185.383L173.056 185.811C171.505 186.765 169.704 187.237 167.883 187.164L167.669 186.88ZM160.535 203.835C159.454 203.906 158.369 203.906 157.288 203.835C156.967 204.904 156.967 206.043 157.288 207.112C157.393 207.492 157.587 207.842 157.853 208.134C158.12 208.425 158.452 208.648 158.822 208.786C159.333 208.93 159.861 209.001 160.392 209C165.504 209.187 170.494 207.415 174.34 204.049C175.521 203.007 176.553 201.808 177.408 200.487C179.272 197.537 180.227 194.106 180.155 190.62V158.561H179.727C176.234 157.649 172.636 157.194 169.025 157.207C166.901 157.046 164.767 157.349 162.771 158.093C160.775 158.837 158.965 160.006 157.467 161.518C154.831 165.199 153.569 169.685 153.899 174.199V174.804C153.905 176.837 154.108 178.865 154.506 180.86C154.776 182.762 155.455 184.584 156.496 186.201C157.536 187.818 158.914 189.191 160.535 190.228C162.807 191.502 165.386 192.13 167.99 192.045C169.905 192.013 171.8 191.652 173.591 190.976V191.19C173.645 192.762 173.375 194.329 172.798 195.793C172.222 197.258 171.35 198.588 170.238 199.703L169.703 200.237C167.788 202.133 165.257 203.282 162.568 203.479C161.815 203.508 161.065 203.58 160.32 203.693" fill="#333333"/>
</g>
<g clip-path="url(#clip2)">
<path d="M86.0963 220.546V256.457C86.0963 257.439 86.0963 257.439 81.3166 257.439V220.546H73V217.086C73 216.385 73.2868 216.057 74.0037 216.057H94.5563V219.611C94.5563 220.312 94.2695 220.546 93.5525 220.546H86.0963Z" fill="#333333"/>
<path d="M91.7362 228.869C94.6361 227.678 97.7714 227.135 100.913 227.279C106.075 227.279 108.369 229.197 108.369 234.48V237.613C108.369 244.44 108.369 251.641 108.035 255.989C105.468 257.392 102.561 258.086 99.6227 258C95.2254 258 90.9715 257.112 90.9715 249.022C90.9715 240.933 94.9864 239.343 99.0013 239.343C100.518 239.31 102.028 239.564 103.446 240.091V235.416C103.446 232.61 102.108 231.909 99.6705 231.909C96.9682 231.892 94.2835 232.335 91.7362 233.218C91.271 232.388 91.0401 231.452 91.0671 230.506C91.0406 230.201 91.0873 229.894 91.2034 229.61C91.3196 229.326 91.5021 229.072 91.7362 228.869ZM100.579 242.897C98.1888 242.897 96.1335 243.739 96.1335 248.882C96.1335 253.184 97.7108 253.932 100.053 253.932C101.202 253.959 102.328 253.614 103.255 252.95C103.255 250.986 103.255 246.638 103.255 243.598C102.406 243.238 101.501 243.017 100.579 242.944V242.897Z" fill="#333333"/>
<path d="M131.312 256.083C128.524 257.457 125.448 258.177 122.326 258.187C115.109 258.187 113.245 255.007 113.245 248.368V228.869C113.245 228.028 113.245 228.028 118.311 228.028V248.601C118.311 252.482 119.124 253.838 122.374 253.838C123.801 253.835 125.202 253.464 126.437 252.763V228.869C126.437 227.887 126.437 227.887 131.216 227.887L131.312 256.083Z" fill="#333333"/>
<path d="M136.952 216.244C136.952 214 137.812 214 141.732 214V229.337C143.569 227.932 145.853 227.204 148.184 227.279C152.964 227.279 155.545 230.319 155.545 238.922C155.545 255.989 148.901 258 143.882 258C141.423 258.096 138.996 257.424 136.952 256.083V216.244ZM141.732 252.997C142.598 253.581 143.648 253.847 144.695 253.745C146.798 253.745 150.192 251.968 150.192 239.998C150.192 233.685 148.853 231.628 146.081 231.628C144.514 231.613 143.003 232.201 141.875 233.265L141.732 252.997Z" fill="#333333"/>
<path d="M159.703 228.869C162.622 227.686 165.771 227.143 168.928 227.279C174.09 227.279 176.384 229.197 176.384 234.48V237.613C176.384 244.44 176.384 251.641 176.05 255.989C173.48 257.385 170.575 258.079 167.637 258C163.24 258 158.986 257.112 158.986 249.022C158.986 240.933 163.001 239.343 167.016 239.343C168.533 239.31 170.043 239.564 171.461 240.091V235.416C171.461 232.61 170.123 231.909 167.685 231.909C164.968 231.898 162.268 232.341 159.703 233.218C159.263 232.395 159.034 231.481 159.034 230.553C159.011 230.241 159.059 229.928 159.174 229.637C159.29 229.346 159.471 229.084 159.703 228.869ZM168.593 242.897C166.203 242.897 164.148 243.739 164.148 248.882C164.148 253.184 165.725 253.932 168.067 253.932C169.216 253.959 170.342 253.614 171.27 252.95C171.27 250.986 171.27 246.638 171.27 243.598C170.42 243.238 169.516 243.017 168.593 242.944V242.897Z" fill="#333333"/>
<path d="M182.932 232.002H178.822C178.822 228.355 178.822 227.887 179.921 227.887H182.932V218.91C182.932 217.226 183.84 217.226 187.712 217.226V228.028H193.83C193.83 231.768 193.83 232.142 192.874 232.142H187.712V249.209C187.712 251.734 187.712 253.885 189.863 253.885C191.083 253.879 192.283 253.573 193.352 252.997C193.595 253.754 193.724 254.541 193.734 255.335C193.734 257.532 190.866 258 188.524 258C183.458 258 182.932 254.54 182.932 249.209V232.002Z" fill="#333333"/>
<path d="M214 236.818C214.033 239.39 213.809 241.958 213.331 244.487C209.157 245.126 204.937 245.439 200.713 245.422C200.951 251.688 202.624 253.324 206.305 253.324C208.728 253.264 211.096 252.605 213.187 251.407C213.498 252.471 213.643 253.574 213.618 254.68C213.618 256.504 209.842 257.906 205.301 257.906C199.661 257.906 195.742 255.615 195.742 244.113C195.742 229.337 201.095 227.186 206.4 227.186C211.706 227.186 214 230.412 214 236.818ZM200.76 241.494C203.502 241.609 206.248 241.39 208.934 240.84C209.143 239.698 209.239 238.539 209.22 237.379C209.22 233.124 208.36 231.535 205.779 231.535C203.198 231.535 201.143 233.545 200.76 241.541V241.494ZM202.959 221.061C205.314 218.362 208.031 215.987 211.037 214C212.184 214 213.092 216.198 213.283 217.6C210.669 219.929 207.836 222.011 204.823 223.819C203.724 223.819 202.959 221.107 202.959 221.107V221.061Z" fill="#333333"/>
</g>
<defs>
<clipPath id="clip0">
<rect width="136" height="126" fill="white" transform="translate(76)"/>
</clipPath>
<clipPath id="clip1">
<rect width="287" height="68" fill="white" transform="translate(0 141)"/>
</clipPath>
<clipPath id="clip2">
<rect width="141" height="44" fill="white" transform="translate(73 214)"/>
</clipPath>
</defs>
</svg>
